X: 9
T: George White's Favourite
R: reel
M: 4/4
L: 1/8
K: Gmaj
|:Bd|"Em"eB (3BBB eBdB|"D"AGAB GEDE|"G"GB (3BBB GABd|eBdB "D"A2Bd|
"Em"eB (3BBB eBdB|"D"AGAB GEDE|"G"GABd "C"gedB|1 "D"AGAB "G"G2:|2 "D"AGAB "G"G4||
|:"G"gede gaba|"C"gfga gedB|"G"dega bgag|"Am"eaag "D"a2ga|
"G"bgeg d3e|"C"gede gaba|"G"gfgd "C"egdB|1 "D"AGAB "G"G4:|2 "D"AGAB "G"G2||

